icons/1_Primary/Postman.svg

<svg width="1024" height="1024" fill="none" xmlns="http://www.w3.org/2000/svg"><g clip-path="url(#a)"><path d="M512 1024c282.77 0 512-229.23 512-512S794.77 0 512 0 0 229.23 0 512s229.23 512 512 512Z" fill="#F8C18C"/><path d="M510.79 503a3.002 3.002 0 0 0-1.36 4 8.84 8.84 0 0 1-1.11 9.61 3 3 0 0 0 4.56 3.77 14.764 14.764 0 0 0 1.84-16 3 3 0 0 0-3.95-1.32l.02-.06Zm33.8-244.47c-140.23-17.95-268.5 81-286.48 221-17.98 140 81.07 268 221.3 286 140.23 18 268.51-81 286.48-220.94 17.97-139.94-81.07-268.11-221.3-286.09v.03Zm52.71 159.41a18.25 18.25 0 0 0-12.64 5.34l-95 94.81-20.25-20.23c93.59-93.2 110.46-94.1 127.89-79.92ZM493.54 521.47l94.72-94.58a13.184 13.184 0 0 1 9.614-4.12 13.184 13.184 0 0 1 9.59 4.174 13.21 13.21 0 0 1 2.786 4.556 13.205 13.205 0 0 1-.656 10.439 13.193 13.193 0 0 1-3.334 4.171L506.07 534l-12.53-12.53Zm7 14.76-23.47 5.05a1.31 1.31 0 0 1-1.21-2.21l13.75-13.74 10.93 10.9Zm-59.81-9.77 25-25 18.75 18.71-42.23 9.07a1.67 1.67 0 0 1-1.53-2.82l.01.04ZM363 655.54a1.624 1.624 0 0 1-1.388-1.064 1.614 1.614 0 0 1 .388-1.706l20.18-20.15 26.06 26-45.24-3.08Zm51.74-26.79a4.872 4.872 0 0 0-2.51 5.42l4.33 18.45a2.709 2.709 0 0 1-4.51 2.51L385.87 629l80.23-80.1 38.83-8.33 18.64 18.61c-26.8 23.41-63.41 46.83-108.82 69.57h-.01Zm112.58-73-17.9-17.86L609.68 450a18.322 18.322 0 0 0 2.52-2.71c-3.2 28.71-43.29 69.12-84.84 108.43l-.04.03Zm78-137.63a38.841 38.841 0 0 1 52.45-57.17l-34.41 34.35a2.545 2.545 0 0 0 0 3.61L650 425.46a38.804 38.804 0 0 1-44.59-7.37l-.09.03Zm55 0a38.043 38.043 0 0 1-5.76 4.7l-25.77-25.73 32.71-32.65a38.762 38.762 0 0 1-1.19 53.66l.01.02Z" fill="#fff"/></g><defs><clipPath id="a"><path fill="#fff" d="M0 0h1024v1024H0z"/></clipPath></defs></svg>

<svg width="1024" height="1024" viewBox="0 0 1024 1024" fill="none" xmlns="http://www.w3.org/2000/svg">
<g clip-path="url(#clip0_2_3192)">
<path d="M512 1024C794.77 1024 1024 794.77 1024 512C1024 229.23 794.77 0 512 0C229.23 0 0 229.23 0 512C0 794.77 229.23 1024 512 1024Z" fill="#F8C18C"/>
<path d="M510.79 503C510.082 503.353 509.541 503.971 509.286 504.72C509.032 505.469 509.083 506.289 509.43 507C510.199 508.537 510.503 510.264 510.306 511.97C510.109 513.677 509.419 515.289 508.32 516.61C507.965 517.224 507.839 517.944 507.965 518.642C508.091 519.34 508.459 519.971 509.006 520.423C509.553 520.875 510.242 521.119 510.951 521.111C511.66 521.103 512.344 520.844 512.88 520.38C514.703 518.178 515.848 515.494 516.175 512.653C516.501 509.813 515.996 506.939 514.72 504.38C514.361 503.692 513.748 503.169 513.011 502.923C512.275 502.677 511.471 502.726 510.77 503.06L510.79 503ZM544.59 258.53C404.36 240.58 276.09 339.53 258.11 479.53C240.13 619.53 339.18 747.53 479.41 765.53C619.64 783.53 747.92 684.53 765.89 544.59C783.86 404.65 684.82 276.48 544.59 258.5V258.53ZM597.3 417.94C592.552 418.008 588.018 419.924 584.66 423.28L489.66 518.09L469.41 497.86C563 404.66 579.87 403.76 597.3 417.94ZM493.54 521.47L588.26 426.89C589.497 425.584 590.988 424.545 592.641 423.837C594.294 423.128 596.075 422.765 597.874 422.77C599.672 422.775 601.451 423.148 603.1 423.866C604.749 424.584 606.234 425.631 607.464 426.944C608.693 428.257 609.641 429.807 610.25 431.5C610.858 433.193 611.113 434.992 611.001 436.787C610.888 438.582 610.409 440.335 609.594 441.939C608.779 443.542 607.644 444.961 606.26 446.11L506.07 534L493.54 521.47ZM500.54 536.23L477.07 541.28C476.792 541.343 476.502 541.314 476.242 541.197C475.982 541.08 475.768 540.881 475.631 540.632C475.494 540.382 475.443 540.094 475.484 539.813C475.525 539.531 475.657 539.27 475.86 539.07L489.61 525.33L500.54 536.23ZM440.73 526.46L465.73 501.46L484.48 520.17L442.25 529.24C441.896 529.317 441.527 529.278 441.198 529.127C440.869 528.977 440.598 528.723 440.425 528.405C440.253 528.087 440.188 527.721 440.241 527.363C440.294 527.005 440.462 526.674 440.72 526.42L440.73 526.46ZM363 655.54C362.691 655.514 362.396 655.4 362.15 655.212C361.904 655.023 361.717 654.768 361.612 654.476C361.506 654.184 361.487 653.868 361.556 653.566C361.625 653.264 361.779 652.987 362 652.77L382.18 632.62L408.24 658.62L363 655.54ZM414.74 628.75C413.779 629.247 413.011 630.049 412.556 631.03C412.102 632.012 411.987 633.116 412.23 634.17L416.56 652.62C416.673 653.183 416.604 653.767 416.363 654.289C416.122 654.81 415.722 655.241 415.221 655.52C414.719 655.8 414.142 655.912 413.572 655.842C413.002 655.772 412.469 655.523 412.05 655.13L385.87 629L466.1 548.9L504.93 540.57L523.57 559.18C496.77 582.59 460.16 606.01 414.75 628.75H414.74ZM527.32 555.75L509.42 537.89L609.68 450C610.609 449.184 611.454 448.276 612.2 447.29C609 476 568.91 516.41 527.36 555.72L527.32 555.75ZM605.32 418.12C598.317 411.026 594.31 401.511 594.127 391.544C593.945 381.578 597.602 371.922 604.341 364.577C611.08 357.232 620.385 352.759 630.33 352.083C640.276 351.408 650.1 354.583 657.77 360.95L623.36 395.3C623.121 395.536 622.932 395.817 622.803 396.127C622.674 396.437 622.607 396.769 622.607 397.105C622.607 397.441 622.674 397.773 622.803 398.083C622.932 398.393 623.121 398.674 623.36 398.91L650 425.46C642.729 429.043 634.519 430.259 626.521 428.938C618.524 427.616 611.141 423.822 605.41 418.09L605.32 418.12ZM660.32 418.12C658.558 419.871 656.629 421.445 654.56 422.82L628.79 397.09L661.5 364.44C668.264 371.809 671.917 381.509 671.696 391.509C671.474 401.51 667.394 411.038 660.31 418.1L660.32 418.12Z" fill="white"/>
</g>
<defs>
<clipPath id="clip0_2_3192">
<rect width="1024" height="1024" fill="white"/>
</clipPath>
</defs>
</svg>
